!!!OTL: 680. Vom Schlaraffenland.
!!!COM: Rob. Schumann
!!!ARE: Europa, Mitteleuropa, Deutschland
!!!SCT: B0680
!!!TXL: @@DE
!!!YEM: Copyright 1995, estate of Helmut Schaffrath.
**kern	**text
*ICvox	*
*Ivox	*
*M2/4	*
*k[]	*
*C:	*
=1	=1
!LO:TX:a:t=Luſtig vorzutragen.	!
{8.cc^	Kommt,
16g	wir
16a	wol-
16b	-len
16cc	uns
16dd	be-
=2	=2
8cc	-ge-
8b}	-ben
{8.cc^	je-
16g	-tʒo
=3	=3
16a	in
16b	Schla-
16cc	-raf-
16dd	-fen-
4b}	-land!
=4	=4
{8.cc^	Seht,
16g	da
16a	iſt
16b	ein
16cc	luſ-
16dd	-tig
=5	=5
8cc	Le-
8b}	-ben,
{8.cc^	und
16g	das
=6	=6
16a	Trau-
16b	-ern
16cc	un-
16dd	-be-
4b}	-kannt.
=7	=7
{8.ee	Seht,
16cc	da
8ff	läßt
8ee	ſich
=8	=8
(16eeqq	.
8dd)	bil-
8cc	-lig
16bL	le-
16aJ	.
8g}	-ben,
=9	=9
{8.ee	und
16cc	um-
8ff	-ſonſt
8ee	recht
=10	=10
8dd	luſ-
8f#	-tig
4g}	ſein
=11	=11
{8.g	Milch
16g	und
8.dd^^	Ho-
16g	-nig
=12	=12
8.g	fließt
16g	in
8dd^^	Bä-
8g}	-chen,
=13	=13
{8cc	aus
8cc	den
8.ff	Fel-
16ee	-ſen
=14	=14
8dd	ſpringt
8g	der
4ee}	Wein,
=15	=15
{8cc	aus
8cc	den
8.ff	Fel-
16ee	-ſen
=16	=16
8dd	ſpringt
8b	der
4cc}	Wein.
==	==
!!!AGN: Scherz - Lied, Maerchen
!!!GTL: Scherzlieder und Gemischtes
!!!ONB: ESAC (Essen Associative Code) Database: BOEHME
!!!AMT: simple duple
!!!AIN: vox
!!!EED: Helmut Schaffrath
!!!EEV: 1.0
!!@@COMMENT:"Gedicht von Hoffmann v. Fallersleben. Jn seinen volksthuemlichen Liedem hat er es nicht angefuehrt."
!!@@END:
!!!Text: H. von Fallersleben
!!!URL-scan: https://archive.org/details/BoehmeVtLieder1895/page/n531/mode/2up
!!!ENC: Anna Maria Matuszewska
!!!EEV: 2024/17/07
*-	*-
